X:194
T: JETZT GEHT DER MARSCH INS FELD
N: E1336
O: Europa, Mitteleuropa, Deutschland, Westerwald
R: Staende -, Soldaten -, Kriegs - Lied
M: 4/4
L: 1/8
K: G
D2 | G3ABABc | d3
ed3B | ddccB2AA | B4z2
GB | d2ddc2cc | B2dBA2
GB | d2ddc2cc | B2dBA2
BA | G3ABABc | d6
ee | dedcB2A2 | G4z2

@@@ Tune index: 4878
